static/icons/rails.svg

<svg width="227" height="140" fill="none" xmlns="http://www.w3.org/2000/svg"><path fill-rule="evenodd" clip-rule="evenodd" d="M7 139.6h79s-15.1-68.9 34.9-96.8c10.9-5.3 45.6-25.1 102.4 16.9 1.8-1.5 3.5-2.7 3.5-2.7s-52-51.9-109.9-46.1C87.8 13.5 52 40 31 75c-21 35-24 64.6-24 64.6Z" fill="#C00"/><path fill-rule="evenodd" clip-rule="evenodd" d="M7 139.6h79s-15.1-68.9 34.9-96.8c10.9-5.3 45.6-25.1 102.4 16.9 1.8-1.5 3.5-2.7 3.5-2.7s-52-51.9-109.9-46.1C87.8 13.5 52 40 31 75c-21 35-24 64.6-24 64.6Z" fill="#C00"/><path fill-rule="evenodd" clip-rule="evenodd" d="M7 139.6h79s-15.1-68.9 34.9-96.8c10.9-5.3 45.6-25.1 102.4 16.9 1.8-1.5 3.5-2.7 3.5-2.7s-52-51.9-109.9-46.1c-29.2 2.6-65 29.1-86 64.1C9.9 110 7 139.6 7 139.6ZM171.6 16.5l.4-6.7c-.9-.5-3.4-1.7-9.7-3.5l-.4 6.6c3.3 1.1 6.5 2.3 9.7 3.6Z" fill="#C00"/><path fill-rule="evenodd" clip-rule="evenodd" d="m162.1 37.7-.4 6.3c3.3.1 6.6.5 9.9 1.2l.4-6.2c-3.4-.7-6.7-1.1-9.9-1.3Zm-37-31.2h1l-2-6.1c-3.1 0-6.3.2-9.6.6l1.9 5.9c2.9-.3 5.8-.4 8.7-.4Zm4.8 36.8 2.3 6.9c2.9-1.4 5.8-2.6 8.7-3.5l-2.2-6.6c-3.4 1-6.3 2.1-8.8 3.2ZM84.5 17 80 10.1c-2.5 1.3-5.1 2.7-7.8 4.3l4.6 7c2.6-1.6 5.1-3.1 7.7-4.4ZM105 62l4.8 7.2c1.7-2.5 3.7-4.8 5.9-7.1l-4.5-6.8c-2.3 2.1-4.4 4.4-6.2 6.7ZM90.5 94.2l8.1 6.4c.4-3.9 1.1-7.8 2.1-11.7l-7.2-5.7c-1.3 3.7-2.2 7.4-3 11ZM46.7 46.7l-7.1-6.2c-2.6 2.5-5.1 5-7.4 7.5l7.7 6.6c2.1-2.7 4.4-5.4 6.8-7.9ZM16.5 91.4 5 87.2c-1.9 4.3-4 9.3-5 12l11.5 4.2c1.3-3.4 3.4-8.3 5-12ZM89 119.6c.2 5.3.7 9.6 1.2 12.6l12 4.3c-.9-3.9-1.8-8.3-2.4-13L89 119.6Z" fill="#C00"/></svg>

<svg width="227" height="140" viewBox="0 0 227 140" fill="none" xmlns="http://www.w3.org/2000/svg">
<path fill-rule="evenodd" clip-rule="evenodd" d="M7 139.6H86C86 139.6 70.9 70.7 120.9 42.8C131.8 37.5 166.5 17.7 223.3 59.7C225.1 58.2 226.8 57 226.8 57C226.8 57 174.8 5.1 116.9 10.9C87.8 13.5 52 40 31 75C10 110 7 139.6 7 139.6Z" fill="#CC0000"/>
<path fill-rule="evenodd" clip-rule="evenodd" d="M7 139.6H86C86 139.6 70.9 70.7 120.9 42.8C131.8 37.5 166.5 17.7 223.3 59.7C225.1 58.2 226.8 57 226.8 57C226.8 57 174.8 5.1 116.9 10.9C87.8 13.5 52 40 31 75C10 110 7 139.6 7 139.6Z" fill="#CC0000"/>
<path fill-rule="evenodd" clip-rule="evenodd" d="M7 139.6H86C86 139.6 70.9 70.7 120.9 42.8C131.8 37.5 166.5 17.7 223.3 59.7C225.1 58.2 226.8 57 226.8 57C226.8 57 174.8 5.09999 116.9 10.9C87.7 13.5 51.9 40 30.9 75C9.9 110 7 139.6 7 139.6ZM171.6 16.5L172 9.79999C171.1 9.29999 168.6 8.09999 162.3 6.29999L161.9 12.9C165.2 14 168.4 15.2 171.6 16.5Z" fill="#CC0000"/>
<path fill-rule="evenodd" clip-rule="evenodd" d="M162.1 37.7L161.7 44C165 44.1 168.3 44.5 171.6 45.2L172 39C168.6 38.3 165.3 37.9 162.1 37.7ZM125.1 6.49999H126.1L124.1 0.399994C121 0.399994 117.8 0.599994 114.5 0.999994L116.4 6.89999C119.3 6.59999 122.2 6.49999 125.1 6.49999ZM129.9 43.3L132.2 50.2C135.1 48.8 138 47.6 140.9 46.7L138.7 40.1C135.3 41.1 132.4 42.2 129.9 43.3ZM84.5 17L80 10.1C77.5 11.4 74.9 12.8 72.2 14.4L76.8 21.4C79.4 19.8 81.9 18.3 84.5 17ZM105 62L109.8 69.2C111.5 66.7 113.5 64.4 115.7 62.1L111.2 55.3C108.9 57.4 106.8 59.7 105 62ZM90.5 94.2L98.6 100.6C99 96.7 99.7 92.8 100.7 88.9L93.5 83.2C92.2 86.9 91.3 90.6 90.5 94.2ZM46.7 46.7L39.6 40.5C37 43 34.5 45.5 32.2 48L39.9 54.6C42 51.9 44.3 49.2 46.7 46.7ZM16.5 91.4L5 87.2C3.1 91.5 1 96.5 0 99.2L11.5 103.4C12.8 100 14.9 95.1 16.5 91.4ZM89 119.6C89.2 124.9 89.7 129.2 90.2 132.2L102.2 136.5C101.3 132.6 100.4 128.2 99.8 123.5L89 119.6Z" fill="#CC0000"/>
</svg>
